Anegamiento.svg

<svg width="100" height="100" viewBox="0 0 100 100" fill="none" xmlns="http://www.w3.org/2000/svg">
<path d="M50 90.8037L32.7666 53.3516C37.058 58.0109 43.1894 60.9131 50 60.9131C56.8247 60.9131 62.9663 57.9776 67.2588 53.293L50 90.8037ZM70.7979 45.6035L69.249 48.9668C65.3038 55.5293 58.1583 59.9131 50 59.9131C41.8846 59.9131 34.7714 55.6084 30.8135 49.1055L29.2021 45.6035H70.7979ZM50 14.5C62.4222 14.5 72.5 24.6623 72.5 37.207C72.5 39.797 72.0695 42.2851 71.2783 44.6035H28.7119C27.9272 42.2887 27.5 39.8016 27.5 37.207C27.5 24.6623 37.5778 14.5 50 14.5Z" fill="black" stroke="black"/>
<path d="M36.584 42.085C37.2618 42.7906 38.3244 43.2227 39.9502 43.2227C41.6947 43.2226 42.7984 42.7808 43.4668 42.085C43.4781 42.0732 43.4895 42.0614 43.501 42.0498C42.5338 42.242 41.395 42.333 40.0996 42.333C38.7328 42.333 37.5334 42.2328 36.5166 42.0195C36.5389 42.0415 36.5623 42.0624 36.584 42.085ZM56.4971 42.0488C57.289 42.7928 58.4304 43.2226 60.0498 43.2227C61.7995 43.2227 62.8605 42.7791 63.4727 42.1055C63.4939 42.0821 63.5152 42.0589 63.5371 42.0361C62.5463 42.2381 61.3788 42.333 60.0498 42.333C58.7004 42.333 57.4814 42.2278 56.4297 41.9902C56.4519 42.0102 56.4754 42.0285 56.4971 42.0488ZM50 39.4443C48.2503 39.4443 47.1893 39.8879 46.5771 40.5615C46.5559 40.5849 46.5336 40.6071 46.5117 40.6299C47.5028 40.4278 48.6705 40.333 50 40.333C51.3489 40.333 52.5677 40.4384 53.6191 40.6758C53.5973 40.6562 53.5741 40.6382 53.5527 40.6182C52.7608 39.8742 51.6195 39.4443 50 39.4443ZM30.0498 39.4443C28.4304 39.4444 27.289 39.8742 26.4971 40.6182C26.4838 40.6306 26.4686 40.641 26.4551 40.6533C27.4687 40.4359 28.6723 40.333 30.0498 40.333C31.3804 40.333 32.5494 40.4275 33.541 40.6299C33.5307 40.62 33.5199 40.6106 33.5098 40.6006C32.775 39.8749 31.6722 39.4443 30.0498 39.4443ZM69.9502 39.4443C68.3243 39.4443 67.2618 39.8764 66.584 40.582C66.5728 40.5936 66.5601 40.6038 66.5488 40.6152C67.516 40.4231 68.6549 40.333 69.9502 40.333C71.2809 40.333 72.4498 40.4274 73.4414 40.6299C73.4311 40.62 73.4203 40.6106 73.4102 40.6006C72.6755 39.875 71.5725 39.4444 69.9502 39.4443ZM36.4902 33.3994C37.225 34.1251 38.3278 34.5557 39.9502 34.5557C41.6947 34.5556 42.7984 34.1138 43.4668 33.418C43.4781 33.4062 43.4895 33.3944 43.501 33.3828C42.5337 33.575 41.395 33.667 40.0996 33.667C38.6872 33.667 37.4542 33.5573 36.416 33.3291C36.4409 33.3524 36.466 33.3755 36.4902 33.3994ZM56.4688 33.3906C57.2371 34.1305 58.3385 34.5557 59.9004 34.5557C61.6448 34.5556 62.7476 34.1138 63.416 33.418C63.4262 33.4073 63.4369 33.3972 63.4473 33.3867C62.4759 33.5763 61.3389 33.667 60.0498 33.667C58.6795 33.667 57.4436 33.558 56.3809 33.3125C56.41 33.3389 56.4406 33.3635 56.4688 33.3906ZM50 30.7773C48.2503 30.7773 47.1893 31.2209 46.5771 31.8945C46.5559 31.9179 46.5336 31.9401 46.5117 31.9629C47.5028 31.7608 48.6706 31.667 50 31.667C51.351 31.667 52.5718 31.7711 53.6221 32.0107C53.5994 31.9903 53.5749 31.972 53.5527 31.9512C52.7608 31.2072 51.6195 30.7773 50 30.7773ZM30.0498 30.7773C28.4304 30.7774 27.289 31.2072 26.4971 31.9512C26.4838 31.9636 26.4686 31.974 26.4551 31.9863C27.4687 31.7689 28.6723 31.667 30.0498 31.667C31.3896 31.667 32.5678 31.7708 33.5693 31.9902C33.5494 31.9714 33.5292 31.9528 33.5098 31.9336C32.775 31.208 31.6722 30.7773 30.0498 30.7773ZM69.9502 30.7773C68.3244 30.7773 67.2618 31.2094 66.584 31.915C66.5737 31.9258 66.5622 31.9357 66.5518 31.9463C67.5233 31.7566 68.6607 31.667 69.9502 31.667C71.2546 31.667 72.4374 31.7644 73.4648 31.9854C73.4466 31.9681 73.428 31.9512 73.4102 31.9336C72.6755 31.208 71.5725 30.7774 69.9502 30.7773ZM81 33.667H80C78.6304 33.667 77.4293 33.5647 76.4111 33.3506C76.4229 33.3614 76.4357 33.3709 76.4473 33.3818C77.2392 34.1258 78.3805 34.5557 80 34.5557H81V42.333H80C78.6332 42.333 77.4339 42.2328 76.417 42.0195C76.4391 42.0414 76.4619 42.0626 76.4834 42.085C77.1519 42.7809 78.2553 43.2227 80 43.2227H81V51H80C77.1187 51 74.829 50.53 73.5029 49.2842C72.711 48.5402 71.5696 48.1114 69.9502 48.1113C68.3245 48.1113 67.2618 48.5425 66.584 49.248C65.9414 49.917 65.024 50.3442 63.957 50.6094C62.8816 50.8766 61.5714 51 60.0498 51C57.1686 51 54.8788 50.53 53.5527 49.2842C52.7608 48.5403 51.6194 48.1113 50 48.1113C48.2553 48.1113 47.1519 48.5521 46.4834 49.248C45.8408 49.9171 44.9235 50.3442 43.8564 50.6094C42.7811 50.8766 41.4715 51 39.9502 51C38.4292 51 37.1236 50.8765 36.0586 50.6084C35.0037 50.3428 34.0945 49.9126 33.4727 49.2285C32.8605 48.5549 31.7995 48.1113 30.0498 48.1113C28.3053 48.1114 27.2016 48.5522 26.5332 49.248C25.8907 49.9169 24.9741 50.3442 23.9072 50.6094C22.8318 50.8766 21.5216 51 20 51H19V43.2227H20C21.7447 43.2227 22.8481 42.7809 23.5166 42.085C23.5467 42.0536 23.5771 42.0225 23.6084 41.9922C22.5593 42.2279 21.3444 42.333 20 42.333H19V34.5557H20C21.7447 34.5557 22.8481 34.1139 23.5166 33.418C23.5466 33.3868 23.5773 33.3563 23.6084 33.3262C22.5594 33.5618 21.3443 33.667 20 33.667H19V25.8887H20C21.7447 25.8887 22.8481 25.4479 23.5166 24.752C24.1592 24.0829 25.0765 23.6558 26.1436 23.3906C27.2189 23.1234 28.5285 23 30.0498 23C31.5241 23 32.8034 23.124 33.8662 23.3916C34.9239 23.6579 35.8318 24.0831 36.4902 24.7334C37.225 25.4589 38.3279 25.8887 39.9502 25.8887C41.6947 25.8886 42.7984 25.4478 43.4668 24.752C44.1093 24.0831 45.0259 23.6558 46.0928 23.3906C47.1682 23.1234 48.4784 23 50 23C52.8767 23 55.1643 23.4684 56.4688 24.7246C57.2371 25.4643 58.3387 25.8887 59.9004 25.8887C61.6446 25.8886 62.7476 25.4476 63.416 24.752C64.0586 24.083 64.976 23.6558 66.043 23.3906C67.1184 23.1234 68.4286 23 69.9502 23C72.8314 23 75.1212 23.47 76.4473 24.7158C77.2392 25.4597 78.3806 25.8887 80 25.8887H81V33.667Z" fill="black" stroke="white" stroke-width="2"/>
</svg>

<?xml version="1.0" encoding="UTF-8"?>
<svg id="Capa_1" xmlns="http://www.w3.org/2000/svg" version="1.1" viewBox="0 0 100 100">
  <!-- Generator: Adobe Illustrator 29.5.1, SVG Export Plug-In . SVG Version: 2.1.0 Build 141)  -->
  <defs>
    <style>
      .st0 {
        stroke: #fff;
        stroke-width: 2px;
      }

      .st0, .st1 {
        fill: #00c9df;
      }
    </style>
  </defs>
  <path class="st1" d="M48.97,91.44l-17.23-37.45c4.29,4.66,10.42,7.56,17.23,7.56s12.97-2.94,17.26-7.62l-17.26,37.51ZM69.77,46.24l-1.55,3.36c-3.95,6.56-11.09,10.95-19.25,10.95s-15.23-4.3-19.19-10.81l-1.61-3.5h41.6ZM48.97,15.14c12.42,0,22.5,10.16,22.5,22.71,0,2.59-.43,5.08-1.22,7.4H27.68c-.78-2.31-1.21-4.8-1.21-7.4,0-12.54,10.08-22.71,22.5-22.71Z"/>
  <path class="st0" d="M36.58,42.08c.68.71,1.74,1.14,3.37,1.14,1.74,0,2.85-.44,3.52-1.14.01-.01.02-.02.03-.04-.97.19-2.11.28-3.4.28-1.37,0-2.57-.1-3.58-.31.02.02.05.04.07.07ZM56.5,42.05c.79.74,1.93,1.17,3.55,1.17,1.75,0,2.81-.44,3.42-1.12.02-.02.04-.05.06-.07-.99.2-2.16.3-3.49.3s-2.57-.11-3.62-.34c.02.02.05.04.07.06ZM50,39.44c-1.75,0-2.81.44-3.42,1.12-.02.02-.04.05-.07.07.99-.2,2.16-.3,3.49-.3s2.57.11,3.62.34c-.02-.02-.04-.04-.07-.06-.79-.74-1.93-1.17-3.55-1.17ZM30.05,39.44c-1.62,0-2.76.43-3.55,1.17-.01.01-.03.02-.04.04,1.01-.22,2.22-.32,3.59-.32s2.5.09,3.49.3c-.01,0-.02-.02-.03-.03-.73-.73-1.84-1.16-3.46-1.16ZM69.95,39.44c-1.63,0-2.69.43-3.37,1.14-.01.01-.02.02-.04.03.97-.19,2.11-.28,3.4-.28s2.5.09,3.49.3c-.01,0-.02-.02-.03-.03-.73-.73-1.84-1.16-3.46-1.16ZM36.49,33.4c.73.73,1.84,1.16,3.46,1.16,1.74,0,2.85-.44,3.52-1.14.01-.01.02-.02.03-.04-.97.19-2.11.28-3.4.28-1.41,0-2.65-.11-3.68-.34.02.02.05.05.07.07ZM56.47,33.39c.77.74,1.87,1.17,3.43,1.17,1.74,0,2.85-.44,3.52-1.14.01-.01.02-.02.03-.03-.97.19-2.11.28-3.4.28-1.37,0-2.61-.11-3.67-.35.03.03.06.05.09.08ZM50,30.78c-1.75,0-2.81.44-3.42,1.12-.02.02-.04.05-.07.07.99-.2,2.16-.3,3.49-.3s2.57.1,3.62.34c-.02-.02-.05-.04-.07-.06-.79-.74-1.93-1.17-3.55-1.17ZM30.05,30.78c-1.62,0-2.76.43-3.55,1.17-.01.01-.03.02-.04.04,1.01-.22,2.22-.32,3.59-.32s2.52.1,3.52.32c-.02-.02-.04-.04-.06-.06-.73-.73-1.84-1.16-3.46-1.16ZM69.95,30.78c-1.63,0-2.69.43-3.37,1.14-.01.01-.02.02-.03.03.97-.19,2.11-.28,3.4-.28s2.49.1,3.51.32c-.02-.02-.04-.03-.05-.05-.73-.73-1.84-1.16-3.46-1.16ZM81,33.67h-1c-1.37,0-2.57-.1-3.59-.32.01.01.02.02.04.03.79.74,1.93,1.17,3.55,1.17h1v7.78h-1c-1.37,0-2.57-.1-3.58-.31.02.02.04.04.07.07.67.7,1.77,1.14,3.52,1.14h1v7.78h-1c-2.88,0-5.17-.47-6.5-1.72-.79-.74-1.93-1.17-3.55-1.17-1.63,0-2.69.43-3.37,1.14-.64.67-1.56,1.1-2.63,1.36-1.08.27-2.39.39-3.91.39-2.88,0-5.17-.47-6.5-1.72-.79-.74-1.93-1.17-3.55-1.17-1.74,0-2.85.44-3.52,1.14-.64.67-1.56,1.1-2.63,1.36-1.08.27-2.38.39-3.91.39s-2.83-.12-3.89-.39c-1.05-.27-1.96-.7-2.59-1.38-.61-.67-1.67-1.12-3.42-1.12-1.74,0-2.85.44-3.52,1.14-.64.67-1.56,1.1-2.63,1.36-1.08.27-2.39.39-3.91.39h-1v-7.78h1c1.74,0,2.85-.44,3.52-1.14.03-.03.06-.06.09-.09-1.05.24-2.26.34-3.61.34h-1v-7.78h1c1.74,0,2.85-.44,3.52-1.14.03-.03.06-.06.09-.09-1.05.24-2.26.34-3.61.34h-1v-7.78h1c1.74,0,2.85-.44,3.52-1.14.64-.67,1.56-1.1,2.63-1.36,1.08-.27,2.38-.39,3.91-.39s2.75.12,3.82.39c1.06.27,1.97.69,2.62,1.34.73.73,1.84,1.16,3.46,1.16,1.74,0,2.85-.44,3.52-1.14.64-.67,1.56-1.1,2.63-1.36,1.08-.27,2.39-.39,3.91-.39,2.88,0,5.16.47,6.47,1.72.77.74,1.87,1.16,3.43,1.16,1.74,0,2.85-.44,3.52-1.14.64-.67,1.56-1.1,2.63-1.36,1.08-.27,2.39-.39,3.91-.39,2.88,0,5.17.47,6.5,1.72.79.74,1.93,1.17,3.55,1.17h1v7.78Z"/>
</svg>
